Newaita-dark/apps/48/vmware-netcfg.svg

<svg height="48pt" viewBox="0 0 48 48" width="48pt" xmlns="http://www.w3.org/2000/svg" xmlns:xlink="http://www.w3.org/1999/xlink"><linearGradient id="a" gradientTransform="matrix(.236865 0 0 .093759 -65.020529 20.158175)" gradientUnits="userSpaceOnUse" x1="328.96524" x2="328.96524" y1="233.5" y2="254.666672"><stop offset="0" stop-opacity=".27451"/><stop offset="1" stop-opacity="0"/></linearGradient><linearGradient id="b"><stop offset="0" stop-opacity=".313725"/><stop offset=".222222" stop-opacity=".27451"/><stop offset="1" stop-opacity="0"/></linearGradient><radialGradient id="c" cx="450.908936" cy="189.579361" gradientTransform="matrix(.00000026 -.117199 -.210958 -.00000015 67.280873 95.392996)" gradientUnits="userSpaceOnUse" r="21.166656" xlink:href="#b"/><radialGradient id="d" cx="450.908936" cy="189.579361" gradientTransform="matrix(-.00000026 .117199 .210958 .00000015 -30.566414 -11.291221)" gradientUnits="userSpaceOnUse" r="21.166656" xlink:href="#b"/><radialGradient id="e" cx="450.908936" cy="189.579361" gradientTransform="matrix(-.00000026 -.117199 .210958 -.00000015 -30.566414 95.392996)" gradientUnits="userSpaceOnUse" r="21.166656" xlink:href="#b"/><radialGradient id="f" cx="450.908936" cy="189.579361" gradientTransform="matrix(.00000026 .117199 -.210958 .00000015 67.28087 -11.291222)" gradientUnits="userSpaceOnUse" r="21.166656" xlink:href="#b"/><linearGradient id="g" gradientUnits="userSpaceOnUse" x1="18.853396" x2="18.853396" y1="42.05096580616" y2="15.25929629293"><stop offset="0" stop-color="#42a5f5"/><stop offset="1" stop-color="#64b5f6"/></linearGradient><linearGradient id="h" gradientUnits="userSpaceOnUse" x1="29.76852" x2="29.76852" y1="31.13584180616" y2="4.34417266504"><stop offset="0" stop-color="#ffa726"/><stop offset="1" stop-color="#ffb74d"/></linearGradient><path d="m8.929688 42.050781h18.855468v1.984375h-18.855468zm0 0" fill="url(#a)"/><path d="m27.785156 42.050781h3.96875v-1.984375h-3.96875zm0 0" fill="url(#c)"/><path d="m8.929688 42.050781h-3.96875v1.984375h3.96875zm0 0" fill="url(#d)"/><path d="m8.929688 42.050781h-3.96875v-1.984375h3.96875zm0 0" fill="url(#e)"/><path d="m27.785156 42.050781h3.96875v1.984375h-3.96875zm0 0" fill="url(#f)"/><path d="m7.9375 15.257812c-1.648438 0-2.976562 1.328126-2.976562 2.976563v20.839844c0 1.648437 1.328124 2.976562 2.976562 2.976562h20.839844c1.648437 0 2.976562-1.328125 2.976562-2.976562v-19.613281l-5.953125 5.953124v8.699219c0 1.097657-.886719 1.984375-1.984375 1.984375h-10.917968c-1.097657 0-1.984376-.886718-1.984376-1.984375v-10.914062c0-1.101563.886719-1.984375 1.984376-1.984375h8.683593l5.953125-5.957032zm0 0" fill="url(#g)"/><path d="m18.851562 4.34375c-1.648437 0-2.976562 1.328125-2.976562 2.976562v7.9375h5.957031v-2.976562c0-1.097656.882813-1.984375 1.984375-1.984375h10.914063c1.097656 0 1.984375.886719 1.984375 1.984375v10.917969c0 1.097656-.886719 1.984375-1.984375 1.984375h-8.699219l-5.953125 5.953125h19.613281c1.648438 0 2.976563-1.328125 2.976563-2.976563v-20.839844c0-1.648437-1.328125-2.976562-2.976563-2.976562zm-2.976562 16.871094v5.703125l5.707031-5.703125zm0 0" fill="url(#h)"/><path d="m18.851562 4.34375c-1.648437 0-2.976562 1.328125-2.976562 2.976562v.496094c0-1.648437 1.328125-2.976562 2.976562-2.976562h20.839844c1.648438 0 2.976563 1.328125 2.976563 2.976562v-.496094c0-1.648437-1.328125-2.976562-2.976563-2.976562zm17.863282 18.855469c0 1.097656-.886719 1.984375-1.984375 1.984375h-8.699219l-5.953125 5.953125h.496094l5.457031-5.457031h8.699219c1.097656 0 1.984375-.886719 1.984375-1.984376zm0 0" fill="#fff" fill-opacity=".470588"/><path d="m18.851562 4.203125c-1.722656 0-3.117187 1.394531-3.117187 3.117187v7.9375c0 .078126.066406.140626.140625.140626h5.957031c.074219 0 .140625-.0625.140625-.140626v-2.976562c0-1.023438.816406-1.84375 1.84375-1.84375h10.914063c1.023437 0 1.84375.820312 1.84375 1.84375v10.917969c0 1.023437-.820313 1.84375-1.84375 1.84375h-8.699219c-.035156 0-.070312.011719-.097656.039062l-5.953125 5.953125c-.039063.042969-.054688.101563-.03125.15625.023437.050782.074219.085938.128906.085938h19.613281c1.722656 0 3.117188-1.394532 3.117188-3.117188v-20.839844c0-1.722656-1.394532-3.117187-3.117188-3.117187zm0 .28125h20.839844c1.574219 0 2.835938 1.261719 2.835938 2.835937v20.839844c0 1.574219-1.261719 2.835938-2.835938 2.835938h-19.273437l5.671875-5.671875h8.640625c1.175781 0 2.125-.953125 2.125-2.125v-10.917969c0-1.171875-.949219-2.125-2.125-2.125h-10.914063c-1.175781 0-2.125.953125-2.125 2.125v2.835938h-5.675781v-7.796876c0-1.574218 1.265625-2.835937 2.835937-2.835937zm-2.976562 16.589844c-.074219 0-.140625.0625-.140625.140625v5.703125c0 .058593.035156.109375.089844.128906.050781.023437.113281.011719.152343-.027344l5.703126-5.707031c.042968-.039062.054687-.101562.03125-.152344-.019532-.054687-.070313-.085937-.128907-.085937zm.140625.28125h5.226563l-5.226563 5.222656zm0 0" fill="#212121"/><path d="m23.816406 9.800781c-1.101562 0-1.984375.886719-1.984375 1.984375v.496094c0-1.097656.882813-1.984375 1.984375-1.984375h10.914063c1.097656 0 1.984375.886719 1.984375 1.984375v-.496094c0-1.097656-.886719-1.984375-1.984375-1.984375zm-2.730468 11.414063-5.210938 5.207031v.496094l5.707031-5.703125zm21.582031 6.449218c0 1.648438-1.328125 2.976563-2.976563 2.976563h-19.117187l-.496094.496094h19.613281c1.648438 0 2.976563-1.328125 2.976563-2.976563zm0 0" fill-opacity=".235294"/><path d="m7.9375 15.257812c-1.648438 0-2.976562 1.328126-2.976562 2.976563v.496094c0-1.648438 1.328124-2.976563 2.976562-2.976563h19.101562l.496094-.496094zm23.816406 4.203126-5.457031 5.597656h.371094l5.085937-5.101563zm-20.839844 14.652343v.496094c0 1.097656.886719 1.984375 1.984376 1.984375h10.917968c1.097656 0 1.984375-.886719 1.984375-1.984375v-.496094c0 1.097657-.886719 1.984375-1.984375 1.984375h-10.917968c-1.097657 0-1.984376-.886718-1.984376-1.984375zm0 0" fill="#fff" fill-opacity=".392157"/><path d="m27.050781 15.257812-5.46875 5.46875h-8.683593c-1.097657 0-1.984376.882813-1.984376 1.984376v.488281c0-1.101563.886719-1.984375 1.984376-1.984375h8.683593l5.953125-5.957032zm-22.089843 23.328126v.488281c0 1.648437 1.328124 2.976562 2.976562 2.976562h20.839844c1.648437 0 2.976562-1.328125 2.976562-2.976562v-.488281c0 1.648437-1.328125 2.976562-2.976562 2.976562h-20.839844c-1.648438 0-2.976562-1.328125-2.976562-2.976562zm0 0" fill-opacity=".235294"/><path d="m7.9375 15.117188c-1.722656 0-3.117188 1.394531-3.117188 3.117187v20.839844c0 1.722656 1.394532 3.117187 3.117188 3.117187h20.839844c1.722656 0 3.117187-1.394531 3.117187-3.117187v-7.9375h-.28125v7.9375c0 1.574219-1.261719 2.835937-2.835937 2.835937h-20.839844c-1.574219 0-2.835938-1.261718-2.835938-2.835937v-20.839844c0-1.570313 1.261719-2.835937 2.835938-2.835937h19.257812l-5.671874 5.675781h-8.625c-1.171876 0-2.125.949219-2.125 2.125v10.914062c0 1.175781.953124 2.125 2.125 2.125h10.917968c1.171875 0 2.125-.949219 2.125-2.125v-2.976562h-.28125v2.976562c0 1.023438-.820312 1.84375-1.84375 1.84375h-10.917968c-1.023438 0-1.84375-.820312-1.84375-1.84375v-10.914062c0-1.027344.820312-1.84375 1.84375-1.84375h8.683593c.039063 0 .074219-.015625.097657-.042969l5.957031-5.953125c.039062-.039063.050781-.101563.027343-.152344-.019531-.054687-.070312-.089843-.128906-.089843zm23.8125 4.203124c-.035156.003907-.070312.015626-.097656.042969l-5.820313 5.820313h.398438l5.382812-5.382813v5.382813h.28125v-5.722656c0-.035157-.015625-.074219-.042969-.101563-.027343-.023437-.066406-.039063-.101562-.039063zm0 0" fill="#212121"/></svg>

<?xml version="1.0" encoding="UTF-8"?>
<svg xmlns="http://www.w3.org/2000/svg" xmlns:xlink="http://www.w3.org/1999/xlink" width="48pt" height="48pt" viewBox="0 0 48 48" version="1.1">
<defs>
<linearGradient id="linear0" gradientUnits="userSpaceOnUse" x1="328.96524" y1="233.5" x2="328.96524" y2="254.666672" gradientTransform="matrix(0.236865,0,0,0.093759,-65.020529,20.158175)">
<stop offset="0" style="stop-color:rgb(0%,0%,0%);stop-opacity:0.27451;"/>
<stop offset="1" style="stop-color:rgb(0%,0%,0%);stop-opacity:0;"/>
</linearGradient>
<radialGradient id="radial0" gradientUnits="userSpaceOnUse" cx="450.908936" cy="189.579361" fx="450.908936" fy="189.579361" r="21.166656" gradientTransform="matrix(0.000000261256,-0.117199,-0.210958,-0.000000152308,67.280873,95.392996)">
<stop offset="0" style="stop-color:rgb(0%,0%,0%);stop-opacity:0.313725;"/>
<stop offset="0.222222" style="stop-color:rgb(0%,0%,0%);stop-opacity:0.27451;"/>
<stop offset="1" style="stop-color:rgb(0%,0%,0%);stop-opacity:0;"/>
</radialGradient>
<radialGradient id="radial1" gradientUnits="userSpaceOnUse" cx="450.908936" cy="189.579361" fx="450.908936" fy="189.579361" r="21.166656" gradientTransform="matrix(-0.000000261256,0.117199,0.210958,0.000000152308,-30.566414,-11.291221)">
<stop offset="0" style="stop-color:rgb(0%,0%,0%);stop-opacity:0.313725;"/>
<stop offset="0.222222" style="stop-color:rgb(0%,0%,0%);stop-opacity:0.27451;"/>
<stop offset="1" style="stop-color:rgb(0%,0%,0%);stop-opacity:0;"/>
</radialGradient>
<radialGradient id="radial2" gradientUnits="userSpaceOnUse" cx="450.908936" cy="189.579361" fx="450.908936" fy="189.579361" r="21.166656" gradientTransform="matrix(-0.000000261256,-0.117199,0.210958,-0.000000152308,-30.566414,95.392996)">
<stop offset="0" style="stop-color:rgb(0%,0%,0%);stop-opacity:0.313725;"/>
<stop offset="0.222222" style="stop-color:rgb(0%,0%,0%);stop-opacity:0.27451;"/>
<stop offset="1" style="stop-color:rgb(0%,0%,0%);stop-opacity:0;"/>
</radialGradient>
<radialGradient id="radial3" gradientUnits="userSpaceOnUse" cx="450.908936" cy="189.579361" fx="450.908936" fy="189.579361" r="21.166656" gradientTransform="matrix(0.000000261256,0.117199,-0.210958,0.000000152308,67.28087,-11.291222)">
<stop offset="0" style="stop-color:rgb(0%,0%,0%);stop-opacity:0.313725;"/>
<stop offset="0.222222" style="stop-color:rgb(0%,0%,0%);stop-opacity:0.27451;"/>
<stop offset="1" style="stop-color:rgb(0%,0%,0%);stop-opacity:0;"/>
</radialGradient>
<linearGradient id="linear1" gradientUnits="userSpaceOnUse" x1="760" y1="1695.118164" x2="760" y2="615.118103" gradientTransform="matrix(0.0248071,0,0,0.0248071,0,0)">
<stop offset="0" style="stop-color:rgb(25.882353%,64.705882%,96.078431%);stop-opacity:1;"/>
<stop offset="1" style="stop-color:rgb(39.215686%,70.980392%,96.470588%);stop-opacity:1;"/>
</linearGradient>
<linearGradient id="linear2" gradientUnits="userSpaceOnUse" x1="1200" y1="1255.118164" x2="1200" y2="175.118118" gradientTransform="matrix(0.0248071,0,0,0.0248071,0,0)">
<stop offset="0" style="stop-color:rgb(100%,65.490196%,14.901961%);stop-opacity:1;"/>
<stop offset="1" style="stop-color:rgb(100%,71.764706%,30.196078%);stop-opacity:1;"/>
</linearGradient>
</defs>
<g id="surface1">
<path style=" stroke:none;fill-rule:nonzero;fill:url(#linear0);" d="M 8.929688 42.050781 L 27.785156 42.050781 L 27.785156 44.035156 L 8.929688 44.035156 Z M 8.929688 42.050781 "/>
<path style=" stroke:none;fill-rule:nonzero;fill:url(#radial0);" d="M 27.785156 42.050781 L 31.753906 42.050781 L 31.753906 40.066406 L 27.785156 40.066406 Z M 27.785156 42.050781 "/>
<path style=" stroke:none;fill-rule:nonzero;fill:url(#radial1);" d="M 8.929688 42.050781 L 4.960938 42.050781 L 4.960938 44.035156 L 8.929688 44.035156 Z M 8.929688 42.050781 "/>
<path style=" stroke:none;fill-rule:nonzero;fill:url(#radial2);" d="M 8.929688 42.050781 L 4.960938 42.050781 L 4.960938 40.066406 L 8.929688 40.066406 Z M 8.929688 42.050781 "/>
<path style=" stroke:none;fill-rule:nonzero;fill:url(#radial3);" d="M 27.785156 42.050781 L 31.753906 42.050781 L 31.753906 44.035156 L 27.785156 44.035156 Z M 27.785156 42.050781 "/>
<path style=" stroke:none;fill-rule:nonzero;fill:url(#linear1);" d="M 7.9375 15.257812 C 6.289062 15.257812 4.960938 16.585938 4.960938 18.234375 L 4.960938 39.074219 C 4.960938 40.722656 6.289062 42.050781 7.9375 42.050781 L 28.777344 42.050781 C 30.425781 42.050781 31.753906 40.722656 31.753906 39.074219 L 31.753906 19.460938 L 25.800781 25.414062 L 25.800781 34.113281 C 25.800781 35.210938 24.914062 36.097656 23.816406 36.097656 L 12.898438 36.097656 C 11.800781 36.097656 10.914062 35.210938 10.914062 34.113281 L 10.914062 23.199219 C 10.914062 22.097656 11.800781 21.214844 12.898438 21.214844 L 21.582031 21.214844 L 27.535156 15.257812 Z M 7.9375 15.257812 "/>
<path style=" stroke:none;fill-rule:nonzero;fill:url(#linear2);" d="M 18.851562 4.34375 C 17.203125 4.34375 15.875 5.671875 15.875 7.320312 L 15.875 15.257812 L 21.832031 15.257812 L 21.832031 12.28125 C 21.832031 11.183594 22.714844 10.296875 23.816406 10.296875 L 34.730469 10.296875 C 35.828125 10.296875 36.714844 11.183594 36.714844 12.28125 L 36.714844 23.199219 C 36.714844 24.296875 35.828125 25.183594 34.730469 25.183594 L 26.03125 25.183594 L 20.078125 31.136719 L 39.691406 31.136719 C 41.339844 31.136719 42.667969 29.808594 42.667969 28.160156 L 42.667969 7.320312 C 42.667969 5.671875 41.339844 4.34375 39.691406 4.34375 Z M 15.875 21.214844 L 15.875 26.917969 L 21.582031 21.214844 Z M 15.875 21.214844 "/>
<path style=" stroke:none;fill-rule:nonzero;fill:rgb(100%,100%,100%);fill-opacity:0.470588;" d="M 18.851562 4.34375 C 17.203125 4.34375 15.875 5.671875 15.875 7.320312 L 15.875 7.816406 C 15.875 6.167969 17.203125 4.839844 18.851562 4.839844 L 39.691406 4.839844 C 41.339844 4.839844 42.667969 6.167969 42.667969 7.816406 L 42.667969 7.320312 C 42.667969 5.671875 41.339844 4.34375 39.691406 4.34375 Z M 36.714844 23.199219 C 36.714844 24.296875 35.828125 25.183594 34.730469 25.183594 L 26.03125 25.183594 L 20.078125 31.136719 L 20.574219 31.136719 L 26.03125 25.679688 L 34.730469 25.679688 C 35.828125 25.679688 36.714844 24.792969 36.714844 23.695312 Z M 36.714844 23.199219 "/>
<path style=" stroke:none;fill-rule:nonzero;fill:rgb(12.941177%,12.941177%,12.941177%);fill-opacity:1;" d="M 18.851562 4.203125 C 17.128906 4.203125 15.734375 5.597656 15.734375 7.320312 L 15.734375 15.257812 C 15.734375 15.335938 15.800781 15.398438 15.875 15.398438 L 21.832031 15.398438 C 21.90625 15.398438 21.972656 15.335938 21.972656 15.257812 L 21.972656 12.28125 C 21.972656 11.257812 22.789062 10.4375 23.816406 10.4375 L 34.730469 10.4375 C 35.753906 10.4375 36.574219 11.257812 36.574219 12.28125 L 36.574219 23.199219 C 36.574219 24.222656 35.753906 25.042969 34.730469 25.042969 L 26.03125 25.042969 C 25.996094 25.042969 25.960938 25.054688 25.933594 25.082031 L 19.980469 31.035156 C 19.941406 31.078125 19.925781 31.136719 19.949219 31.191406 C 19.972656 31.242188 20.023438 31.277344 20.078125 31.277344 L 39.691406 31.277344 C 41.414062 31.277344 42.808594 29.882812 42.808594 28.160156 L 42.808594 7.320312 C 42.808594 5.597656 41.414062 4.203125 39.691406 4.203125 Z M 18.851562 4.484375 L 39.691406 4.484375 C 41.265625 4.484375 42.527344 5.746094 42.527344 7.320312 L 42.527344 28.160156 C 42.527344 29.734375 41.265625 30.996094 39.691406 30.996094 L 20.417969 30.996094 L 26.089844 25.324219 L 34.730469 25.324219 C 35.90625 25.324219 36.855469 24.371094 36.855469 23.199219 L 36.855469 12.28125 C 36.855469 11.109375 35.90625 10.15625 34.730469 10.15625 L 23.816406 10.15625 C 22.640625 10.15625 21.691406 11.109375 21.691406 12.28125 L 21.691406 15.117188 L 16.015625 15.117188 L 16.015625 7.320312 C 16.015625 5.746094 17.28125 4.484375 18.851562 4.484375 Z M 15.875 21.074219 C 15.800781 21.074219 15.734375 21.136719 15.734375 21.214844 L 15.734375 26.917969 C 15.734375 26.976562 15.769531 27.027344 15.824219 27.046875 C 15.875 27.070312 15.9375 27.058594 15.976562 27.019531 L 21.679688 21.3125 C 21.722656 21.273438 21.734375 21.210938 21.710938 21.160156 C 21.691406 21.105469 21.640625 21.074219 21.582031 21.074219 Z M 16.015625 21.355469 L 21.242188 21.355469 L 16.015625 26.578125 Z M 16.015625 21.355469 "/>
<path style=" stroke:none;fill-rule:nonzero;fill:rgb(0%,0%,0%);fill-opacity:0.235294;" d="M 23.816406 9.800781 C 22.714844 9.800781 21.832031 10.6875 21.832031 11.785156 L 21.832031 12.28125 C 21.832031 11.183594 22.714844 10.296875 23.816406 10.296875 L 34.730469 10.296875 C 35.828125 10.296875 36.714844 11.183594 36.714844 12.28125 L 36.714844 11.785156 C 36.714844 10.6875 35.828125 9.800781 34.730469 9.800781 Z M 21.085938 21.214844 L 15.875 26.421875 L 15.875 26.917969 L 21.582031 21.214844 Z M 42.667969 27.664062 C 42.667969 29.3125 41.339844 30.640625 39.691406 30.640625 L 20.574219 30.640625 L 20.078125 31.136719 L 39.691406 31.136719 C 41.339844 31.136719 42.667969 29.808594 42.667969 28.160156 Z M 42.667969 27.664062 "/>
<path style=" stroke:none;fill-rule:nonzero;fill:rgb(100%,100%,100%);fill-opacity:0.392157;" d="M 7.9375 15.257812 C 6.289062 15.257812 4.960938 16.585938 4.960938 18.234375 L 4.960938 18.730469 C 4.960938 17.082031 6.289062 15.753906 7.9375 15.753906 L 27.039062 15.753906 L 27.535156 15.257812 Z M 31.753906 19.460938 L 26.296875 25.058594 L 26.667969 25.058594 L 31.753906 19.957031 Z M 10.914062 34.113281 L 10.914062 34.609375 C 10.914062 35.707031 11.800781 36.59375 12.898438 36.59375 L 23.816406 36.59375 C 24.914062 36.59375 25.800781 35.707031 25.800781 34.609375 L 25.800781 34.113281 C 25.800781 35.210938 24.914062 36.097656 23.816406 36.097656 L 12.898438 36.097656 C 11.800781 36.097656 10.914062 35.210938 10.914062 34.113281 Z M 10.914062 34.113281 "/>
<path style=" stroke:none;fill-rule:nonzero;fill:rgb(0%,0%,0%);fill-opacity:0.235294;" d="M 27.050781 15.257812 L 21.582031 20.726562 L 12.898438 20.726562 C 11.800781 20.726562 10.914062 21.609375 10.914062 22.710938 L 10.914062 23.199219 C 10.914062 22.097656 11.800781 21.214844 12.898438 21.214844 L 21.582031 21.214844 L 27.535156 15.257812 Z M 4.960938 38.585938 L 4.960938 39.074219 C 4.960938 40.722656 6.289062 42.050781 7.9375 42.050781 L 28.777344 42.050781 C 30.425781 42.050781 31.753906 40.722656 31.753906 39.074219 L 31.753906 38.585938 C 31.753906 40.234375 30.425781 41.5625 28.777344 41.5625 L 7.9375 41.5625 C 6.289062 41.5625 4.960938 40.234375 4.960938 38.585938 Z M 4.960938 38.585938 "/>
<path style=" stroke:none;fill-rule:nonzero;fill:rgb(12.941177%,12.941177%,12.941177%);fill-opacity:1;" d="M 7.9375 15.117188 C 6.214844 15.117188 4.820312 16.511719 4.820312 18.234375 L 4.820312 39.074219 C 4.820312 40.796875 6.214844 42.191406 7.9375 42.191406 L 28.777344 42.191406 C 30.5 42.191406 31.894531 40.796875 31.894531 39.074219 L 31.894531 31.136719 L 31.613281 31.136719 L 31.613281 39.074219 C 31.613281 40.648438 30.351562 41.910156 28.777344 41.910156 L 7.9375 41.910156 C 6.363281 41.910156 5.101562 40.648438 5.101562 39.074219 L 5.101562 18.234375 C 5.101562 16.664062 6.363281 15.398438 7.9375 15.398438 L 27.195312 15.398438 L 21.523438 21.074219 L 12.898438 21.074219 C 11.726562 21.074219 10.773438 22.023438 10.773438 23.199219 L 10.773438 34.113281 C 10.773438 35.289062 11.726562 36.238281 12.898438 36.238281 L 23.816406 36.238281 C 24.988281 36.238281 25.941406 35.289062 25.941406 34.113281 L 25.941406 31.136719 L 25.660156 31.136719 L 25.660156 34.113281 C 25.660156 35.136719 24.839844 35.957031 23.816406 35.957031 L 12.898438 35.957031 C 11.875 35.957031 11.054688 35.136719 11.054688 34.113281 L 11.054688 23.199219 C 11.054688 22.171875 11.875 21.355469 12.898438 21.355469 L 21.582031 21.355469 C 21.621094 21.355469 21.65625 21.339844 21.679688 21.3125 L 27.636719 15.359375 C 27.675781 15.320312 27.6875 15.257812 27.664062 15.207031 C 27.644531 15.152344 27.59375 15.117188 27.535156 15.117188 Z M 31.75 19.320312 C 31.714844 19.324219 31.679688 19.335938 31.652344 19.363281 L 25.832031 25.183594 L 26.230469 25.183594 L 31.613281 19.800781 L 31.613281 25.183594 L 31.894531 25.183594 L 31.894531 19.460938 C 31.894531 19.425781 31.878906 19.386719 31.851562 19.359375 C 31.824219 19.335938 31.785156 19.320312 31.75 19.320312 Z M 31.75 19.320312 "/>
</g>
</svg>
